!!!OTL: Moorlough Mary, S. 74
!!!id: I0521
**kern
*clefG2
*k[f#c#]
*D:
{8d
8e
4f#
8a
16b
16cc#
=1
2dd
8cc#
8dd
4.ee
8dd
8cc#
8a
=2
4.b
8a
4f#}
=3
{8d
8e
4f#
4a
=4
4.dd
8b
4cc#
8b
8a
8f#
8g
4a
=5
2.b}
=6
{8b
8cc#
4dd
4dd
=7
4.f#
8e
4d
4f#
4a
4b
=8
2a
4f#}
=9
{8b
8cc#
4dd
4dd
=10
2f#
4e
4f#
4.d
8d
=11
2.d}
=12
{8d
8e
4f#
4a
=13
2dd
4cc#
4dd
8ee
8dd
4cc#
=14
4.b
8a
4f#}
=15
{8d
8e
4f#
4a
=16
2dd
4cc#
4b
8f#
8g
4a
=17
2.b}
=18
{8b
8cc#
4dd
4dd
=19
4.f#
8e
4d
4f#
4a
4b
=20
2a
4f#}
=21
{8b
8cc#
4dd
4dd
=22
4.f#
8d
4e
4f#
4.d
8d
=23
2.d}
==
*-
!!!minrhy: 16
!!!meters: 6/4 ]  ZZ[8
!!!cut: Moorlough Mary, S. 74
!!!reg: Irland
!!!trd: O BOYLE, Sean: 25 Irish Folksongs, Dublin 1976
!!!rhy1: X_X_X__X_XX  X___X_X_X__.X_X_X_  X__.X_X__
!!!rhy2: X_X_X__X__  X__.X_X__X_X_X_X_X__  X___.
!!!key: I0521  16  D 6/4 ]  ZZ[8
!!!mod: HEPTATONIK IONISCH]  AMBITUS[9
!!!kad: 36313631
!!!akz: 1+1+26_1+166_6335_6331_1+1+16_1+166_6335_6331_
!!!fot: 'a__aw_b__bw_aw_aw_b__bw_
!!!for: 'a__b__c__d__e__ew_c__f__
!!!fok: '^a_~a_Sd_\__^a_~a_Sd_Sd_
!! PHRAS[AUFTAKTIG]
!!!fkt: Ballade, Liebeslied
!! IRISCHE VKL.
!! PR[6] 2K[2] 2G[16] 3K[10] 3G[0] 4A[2] 4Ü[0] 5A[3] 6K[0] 6G[0]
!! 7K[3] 7G[0] 8A[0] MEHR[1] SI[36] ABS[118] SR[18] SP[19]
!! ST[16] 2k[0] 2g[31] 3k[23] 3g[0] 4d[4] 4ü[0] 5d[0] 6k[0] 6g[0]
!! 7k[0] 7g[0] 8d[0] mehr[0] si[58] dm[-22] sr[31] sp[27]
!! 1F[19] 2F[58] 3F[17] 4F[2] LF[0] 2P[2] 3P[1] 4P[0] TRI[0] DF[6] AB[122]
!! TF[10] U3K[10] U3[0] U4[13] U4Ü[0] U5[21] U6K[0] U6[0] U7K[13] U7[0]
!! N1[13] N2K[0] N2[3] N3K[8] N3[0] N4[8] N4Ü[0] N5[2] N6K[0] N6[0]
!!!n7k: 0] N7[0] O1[0] O2K[0] O2[0] O3K[0] O3[0] HÖ[0
